X:32
T:T020D- Basket of Oysters (Greensleeves/ Johnny McGill)
S:Hime's 48 Original Irish Country Dances, c 1795
N:(There are other tunes of this title)
Q:1/4=120
L:1/8
M:6/8
K:Bm
c|d2d def|e2d cde|dcB B^AB|c2^AF2c|d2d def|\
e2d cde|dcB cB^A|B3B2::d|A2G FEF|A2GF2d|\
A2G FEF|D2CB,2d|A2G FEF|A2G F2|dcB ec^A|B6B,2:]

